Obsidian-SemiLight/actions/24s/snap-nodes-center.svg

<svg viewBox="0 0 24 24" xmlns="http://www.w3.org/2000/svg"><path d="m12 5a8 7 0 0 0 -8 7 8 7 0 0 0 8 7 8 7 0 0 0 8-7 8 7 0 0 0 -8-7zm0 1a7 6 0 0 1 7 6 7 6 0 0 1 -7 6 7 6 0 0 1 -7-6 7 6 0 0 1 7-6z" fill="#4d4d4d"/><path d="m12 10a2 2 0 0 0 -2 2 2 2 0 0 0 2 2 2 2 0 0 0 2-2 2 2 0 0 0 -2-2zm0 1a1 1 0 0 1 1 1 1 1 0 0 1 -1 1 1 1 0 0 1 -1-1 1 1 0 0 1 1-1z" fill="#3daee9"/></svg>

<svg xmlns="http://www.w3.org/2000/svg" viewBox="0 0 24 24">
  <defs id="defs3051">
    <style type="text/css" id="current-color-scheme">
      .ColorScheme-Text {
        color:#4d4d4d;
      }
      .ColorScheme-Highlight {
        color:#3daee9;
      }
      </style>
  </defs>
 <path 
     style="fill:currentColor;fill-opacity:1;stroke:none" 
     d="M 12 5 A 8 7 0 0 0 4 12 A 8 7 0 0 0 12 19 A 8 7 0 0 0 20 12 A 8 7 0 0 0 12 5 z M 12 6 A 7 6 0 0 1 19 12 A 7 6 0 0 1 12 18 A 7 6 0 0 1 5 12 A 7 6 0 0 1 12 6 z "
     class="ColorScheme-Text"
     />
 <path 
     style="fill:currentColor;fill-opacity:1;stroke:none" 
     d="M 12 10 A 2 2 0 0 0 10 12 A 2 2 0 0 0 12 14 A 2 2 0 0 0 14 12 A 2 2 0 0 0 12 10 z M 12 11 A 1 1 0 0 1 13 12 A 1 1 0 0 1 12 13 A 1 1 0 0 1 11 12 A 1 1 0 0 1 12 11 z "
     class="ColorScheme-Highlight"
     />
</svg>
